imgs/icon-1.svg

<svg width="75" height="72" xmlns="http://www.w3.org/2000/svg"><g fill="#81B3D2" fill-rule="nonzero"><path d="M29.656 65.033h16V41.21h-16v23.823Zm2.937-20.899h10.125V62.11H32.593V44.134Z"/><path d="m72.771 39.253 2.076-2.068-9.908-9.865V0H51.127v13.567L37.5 0 .152 37.185l2.077 2.068 7.832-7.795v37.618H6.124V72h63.875v-2.924H64.94V31.458l7.831 7.795ZM62.002 69.076H12.999V28.534L37.5 4.149l24.502 24.385v40.542Zm0-44.682-7.938-7.902V2.924h7.938v21.47Z"/><path d="M29.906 27.08c0 4.261 3.47 7.713 7.75 7.713 4.279 0 7.75-3.452 7.75-7.713 0-4.259-3.471-7.713-7.75-7.713-4.281 0-7.75 3.454-7.75 7.713Zm7.75-4.945c2.744 0 4.969 2.214 4.969 4.945 0 2.732-2.225 4.948-4.969 4.948-2.746 0-4.97-2.216-4.97-4.948 0-2.731 2.225-4.945 4.97-4.945ZM17.061 41.21h3v3.919h-3V41.21Zm5.938 0h3v3.919h-3V41.21Zm-5.938 5.972h3v3.919h-3v-3.919Zm5.938 0h3v3.919h-3v-3.919Zm25.999-5.972h3v3.919h-3V41.21Zm5.938 0h3v3.919h-3V41.21Zm-5.938 5.972h3v3.919h-3v-3.919Zm5.938 0h3v3.919h-3v-3.919Z"/></g></svg>

<?xml version="1.0" encoding="UTF-8"?>
<svg width="75px" height="72px" viewBox="0 0 75 72" version="1.1" xmlns="http://www.w3.org/2000/svg" xmlns:xlink="http://www.w3.org/1999/xlink">
    <title>icon-1</title>
    <g id="Pages" stroke="none" stroke-width="1" fill="none" fill-rule="evenodd">
        <g id="Index" transform="translate(-202.000000, -1096.000000)" fill="#81B3D2" fill-rule="nonzero">
            <g id="content" transform="translate(40.000000, 622.500000)">
                <g id="icon-1" transform="translate(162.000000, 473.500000)">
                    <path d="M29.656,65.033 L45.656,65.033 L45.656,41.21 L29.656,41.21 L29.656,65.033 Z M32.593,44.134 L42.718,44.134 L42.718,62.11 L32.593,62.11 L32.593,44.134 L32.593,44.134 Z" id="Shape"></path>
                    <path d="M72.771,39.253 L74.847,37.185 L64.939,27.32 L64.939,0 L51.127,0 L51.127,13.567 L37.5,0 L0.152,37.185 L2.229,39.253 L10.061,31.458 L10.061,69.076 L6.124,69.076 L6.124,72 L69.999,72 L69.999,69.076 L64.94,69.076 L64.94,31.458 L72.771,39.253 Z M62.002,69.076 L12.999,69.076 L12.999,28.534 L37.5,4.149 L62.002,28.534 L62.002,69.076 L62.002,69.076 Z M62.002,24.394 L54.064,16.492 L54.064,2.924 L62.002,2.924 L62.002,24.394 L62.002,24.394 Z" id="Shape"></path>
                    <path d="M29.906,27.08 C29.906,31.341 33.376,34.793 37.656,34.793 C41.935,34.793 45.406,31.341 45.406,27.08 C45.406,22.821 41.935,19.367 37.656,19.367 C33.375,19.367 29.906,22.821 29.906,27.08 Z M37.656,22.135 C40.4,22.135 42.625,24.349 42.625,27.08 C42.625,29.812 40.4,32.028 37.656,32.028 C34.91,32.028 32.686,29.812 32.686,27.08 C32.686,24.349 34.911,22.135 37.656,22.135 Z M17.061,41.21 L20.061,41.21 L20.061,45.129 L17.061,45.129 L17.061,41.21 Z M22.999,41.21 L25.999,41.21 L25.999,45.129 L22.999,45.129 L22.999,41.21 Z M17.061,47.182 L20.061,47.182 L20.061,51.101 L17.061,51.101 L17.061,47.182 Z M22.999,47.182 L25.999,47.182 L25.999,51.101 L22.999,51.101 L22.999,47.182 Z M48.998,41.21 L51.998,41.21 L51.998,45.129 L48.998,45.129 L48.998,41.21 Z M54.936,41.21 L57.936,41.21 L57.936,45.129 L54.936,45.129 L54.936,41.21 Z M48.998,47.182 L51.998,47.182 L51.998,51.101 L48.998,51.101 L48.998,47.182 Z M54.936,47.182 L57.936,47.182 L57.936,51.101 L54.936,51.101 L54.936,47.182 Z" id="Shape"></path>
                </g>
            </g>
        </g>
    </g>
</svg>
